!!!!SEGMENT: pl-wnifc--2371-n_mikuli-karol--valse-op-20.krn
!!!cenid: 18xx:3887
!!!COM: Mikuli, Karol
!!!COM-rismID: pe106110
!!!CDT: 1819-1897
!!!CNT:
!!!OTL: Valse op. 20
!!!PDT:
!!!AGN:
!!!SMS-siglum: PL-Wnifc
!!!SMS-shelfmark: 2371/n
!!!SMS-shelfwork: W
!!!SMS-variant:
!!!SMS-altvar:
!!!NIFC-rismSourceID: 300605264
!!!NIFC-rismChildID: 300605264
!!!NIFC-islandoraID: nifc:211948
!!!URL-pdf-islandora: https://repozytorium.nifc.pl/islandora/object/nifc%3A211948/datastream/PDF/view
!!!URL-scan: https://polish.musicsources.pl/pl/lokalizacje/galeria/druki-muzyczne/16816 @EN{Scan on Polish Music Sources Website} @PL{Skany w portalu Dziedzictwo Muzyki Polskiej w otwartym dostępie}
!!!ONB-nifc:
!!!AIN: 1 piano
!!!key: A
**kern	**fing	**kern	**fing	**dynam
*part2	*	*part1	*	*part1
*staff2	*	*staff1	*	*
*I"Piano	*	*I"Piano.	*	*
*I'P-no	*	*I'P-no	*	*
*ICklav	*	*	*	*
*Ipiano	*	*	*	*
*clefF4	*	*clefG2	*	*
*k[f#c#g#]	*	*k[f#c#g#]	*	*
*A:	*	*A:	*	*
*M3/4	*	*M3/4	*	*
!	!	!LO:TX:a:t=Con grazia.	!	!
4r	.	(8cc#\L	.	p
.	.	8dd\J	.	.
=1	=1	=1	=1	=1
*^	*	*	*	*
4r	2.AA\	.	8dd#X\L	.	.
.	.	.	8ee\	.	.
4c# 4E/	.	.	8ee#X\	.	<
.	.	.	8ff#\	.	.
4c# 4E/	.	.	8cc#\	.	.
.	.	.	8ddn\J	.	.
=2	=2	=2	=2	=2	=2
4r	2.AA#X\	.	8dd#X\L	.	.
.	.	.	8een\	.	.
4c# 4F# 4E/	.	.	8ee#X\	.	.
.	.	.	8ff#\J	.	.
.	.	.	[8qff#/)	.	[
4c# 4F# 4E/	.	.	8.dddnL 8.ff#\]	.	.
.	.	.	16ccc#Jk 16een\	.	>
=3	=3	=3	=3	=3	=3
!	!	!	!LO:N:vis=2	!	!
4r	2.BB\	.	8%3ccc# 8%3ee\	.	.
4B 4F# 4D/	.	.	.	.	.
!	!	!	!LO:N:vis=2	!	!
.	.	.	[8%3bb [8%3dd\	.	]]
4B 4F# 4D/	.	.	.	.	.
*v	*v	*	*	*	*
=4	=4	=4	=4	=4
!	!	!LO:N:vis=4	!	!
4DD/	.	16%3bb] 16%3dd\]	.	.
!	!	!LO:N:vis=4	!	!
.	.	16%3aa 16%3cc#\	.	.
4B 4F# 4D\	.	.	.	.
!	!	!LO:N:vis=4	!	!
.	.	16%3gg# 16%3b\	.	.
4B 4F# 4D\	.	.	.	.
!	!	!LO:N:vis=4	!	!
.	.	16%3ff# 16%3a\	.	.
=5	=5	=5	=5	=5
*	*	*^	*	*
4EE/	.	(8dd#X/L	[2.g#\	.	.
.	.	8ee/	.	.	.
4dn 4B 4E\	.	8ee#X/	.	.	.
.	.	8ff#/	.	.	.
4d 4B 4E\	.	8cc#/	.	.	.
.	.	8ddn/J	.	.	.
!!LO:LB:g=original
=6	=6	=6	=6	=6	=6
4EE/	.	8dd#X/L	2.g#\]	.	.
!	!	!	!	!LO:TX:t=P:problem:palcowanie zapisane ołówkiem	!
.	.	8een/	.	2	.
4dn 4B 4E\	.	8a#X/	.	2	.
.	.	8b/	.	.	.
4d 4B 4E\	.	8ee/	.	.	.
.	.	8ddn/J	.	.	.
=7	=7	=7	=7	=7	=7
4AA/	.	8dd/L	4a\	.	.
.	.	8cc#m/	.	.	.
4c# 4A 4E\	.	8b/	4r	.	.
.	.	8a/	.	.	.
4A 4BB\	.	8g#/	4d#X\	.	.
.	.	8f#/J	.	.	.
=8	=8	=8	=8	=8	=8
4G# 4E\	.	8e/L	4e\	.	.
.	.	8g#/	.	.	.
4r	.	8a/	4ryy	.	<
.	.	8b/	.	.	.
4r	.	8cc#/	4ryy	.	.
.	.	8ddn/J	.	.	.
*	*	*v	*v	*	*
=9	=9	=9	=9	=9
*^	*	*	*	*
4r	2.AA\	.	8dd#X\L	.	.
.	.	.	8ee\	.	.
4c# 4A 4E/	.	.	8ee#X\	.	.
.	.	.	8ff#\	.	.
4c# 4A 4E/	.	.	8cc#\	.	.
.	.	.	8ddn\J	.	.
=10	=10	=10	=10	=10	=10
*	*	*	*^	*	*
4r	2.AA#X\	.	8dd#X\L	2ryy	.	.
.	.	.	8een\	.	.	.
4c# 4F# 4E/	.	.	8ee#X\	.	.	.
.	.	.	8ff#\J	.	.	.
.	.	.	.	(8qff#/	.	[
4c# 4F# 4E/	.	.	8.fff#/L)	4ccc# 4ff#\)	.	.
.	.	.	16eeen/Jk	.	.	.
*	*	*	*v	*v	*	*
!!LO:LB:g=original
=11	=11	=11	=11	=11	=11
4r	2.BB\	.	(4.eee 4.ccc#\	5	>
4B 4F# 4D/	.	.	.	.	.
.	.	.	8dddL 8bbW\	.	.
4B 4F# 4D/	.	.	8ccc# 8aa#X\	.	.
.	.	.	8dddJ 8bb\	.	]]
*v	*v	*	*	*	*
=12	=12	=12	=12	=12
*	*	*8va	*	*
4DD/	.	8ddddL 8fff#\	5	p
!	!	!LO:TX:b:t=leggiero.	!	!
.	.	8cccc# 8eee#X\	4	.
4B 4F# 4D\	.	8eeeen 8gggn\	5	.
.	.	16r	.	5
.	.	16ddddK 16fff#\	4	.
4B 4F# 4D\	.	8cccc# 8eeen\	5	.
.	.	8bbbJ 8ddd\	.	5
*	*	*X8va	*	*
=13	=13	=13	=13	=13
!	!	!LO:TX:a:t=loco	!	!
4EE/	.	8aaaL 8ccc#'\	5	.
.	.	8ggg# 8bb'\	4	.
4c# 4A 4E\	.	8fff# 8aa'\	5	.
.	.	8eee 8gg#X'\	5	.
4c# 4A 4E\	.	8ddd 8ff#'\	4	.
.	.	8ccc#J 8ee'\	5	.
=14	=14	=14	=14	=14
4EE/	.	8bbL 8dd'\	4	.
.	.	8aa 8cc#'\	5	.
4c# 4A 4E\	.	8gg# 8b'\	4	.
.	.	8ff# 8a'\	3	.
4r	.	8ee 8g#'\	5	.
.	.	8dd#XJ 8f##X'\	4	.
=15	=15	=15	=15	=15
4EE/	.	8eeL 8g#\	.	5
.	.	8ff#X 8a\	.	4
4d 4B 4E\	.	8ff##X 8a#X\	5	.
.	.	8gg# 8b\	.	4
4d 4G# 4E\	.	8ccc# 8ee\)	.	.
.	.	16r	.	.
.	.	(16bbJk 16dd\	.	.
=16	=16	=16	=16	=16
(4AA/	.	4aa 4cc#\)	.	.
4c# 4A 4E\)	.	4r	.	.
4r	.	(8cc#\L	.	p
.	.	8dd\J	.	.
!!LO:LB:g=original
=17	=17	=17	=17	=17
*^	*	*	*	*
4r	2.AA\	.	8dd#X\L	.	<
.	.	.	8ee\	.	.
4c# 4E/	.	.	8ee#X\	.	.
.	.	.	8ff#\	.	.
4c# 4E/	.	.	8cc#\	.	.
.	.	.	8ddn\J	.	.
=18	=18	=18	=18	=18	=18
4r	2.AA#X\	.	8dd#X\L	.	.
.	.	.	8een\	.	.
4c# 4F# 4E/	.	.	8ee#X\	.	.
.	.	.	8ff#\J	.	.
.	.	.	[8qff#/)	.	[
4c# 4F# 4E/	.	.	8.dddnL 8.ff#\]	.	.
.	.	.	16ccc#Jk 16een\	.	.
=19	=19	=19	=19	=19	=19
!	!	!	!LO:N:vis=2	!	!
4r	2.BB\	.	8%3ccc# 8%3ee\	.	.
4B 4F# 4D/	.	.	.	.	.
!	!	!	!LO:N:vis=2	!	!
.	.	.	[8%3bb [8%3dd\	.	.
4B 4F# 4D/	.	.	.	.	.
*v	*v	*	*	*	*
=20	=20	=20	=20	=20
!	!	!LO:N:vis=4	!	!
4DD/	.	16%3bb] 16%3dd\]	.	>
!	!	!LO:N:vis=4	!	!
.	.	16%3aa 16%3cc#\	.	.
4B 4F# 4D\	.	.	.	.
!	!	!LO:N:vis=4	!	!
.	.	16%3gg# 16%3b\	.	.
4B 4F# 4D\	.	.	.	.
!	!	!LO:N:vis=4	!	!
.	.	16%3ff# 16%3a\	.	]]
=21	=21	=21	=21	=21
*	*	*^	*	*
4EE/	.	(8dd#X/L	[2.g#\	.	p
.	.	8ee/	.	.	.
4dn 4B 4E\	.	8ee#X/	.	.	.
.	.	8ff#/	.	.	.
4d 4B 4E\	.	8cc#/	.	.	.
.	.	8ddn/J	.	.	.
=22	=22	=22	=22	=22	=22
4EE/	.	8dd#X/L	2.g#\]	.	.
.	.	8een/	.	.	.
4dn 4B 4E\	.	8a#X/	.	2	.
.	.	8b/	.	2	.
4d 4B 4E\	.	8ee/	.	.	.
.	.	8ddn/J)	.	.	.
!!LO:LB:g=original
=23	=23	=23	=23	=23	=23
4AA/	.	(8dd/L	4a\	.	.
.	.	8cc#m/	.	.	.
4c# 4A 4E\	.	8b/	4r	.	.
.	.	8a/	.	.	.
4A 4BB\	.	8g#/	4d#X\	.	.
.	.	8f#/J	.	.	.
=24	=24	=24	=24	=24	=24
4G# 4E\	.	8e/L	4e\	.	.
.	.	8g#/	.	.	.
4r	.	8a/	4ryy	.	<
.	.	8b/	.	.	.
4r	.	8cc#/	4ryy	.	.
.	.	8ddn/J	.	.	.
*	*	*v	*v	*	*
=25	=25	=25	=25	=25
*^	*	*	*	*
4r	2.AA\	.	8dd#X\L	.	.
.	.	.	8ee\	.	.
4c# 4E/	.	.	8ee#X\	.	.
.	.	.	8ff#\	.	.
4c# 4E/	.	.	8cc#\	.	.
.	.	.	8ddn\J	.	.
=26	=26	=26	=26	=26	=26
*	*	*	*^	*	*
4r	2.AA#X\	.	8dd#X\L	2ryy	.	.
.	.	.	8een\	.	.	.
4c# 4F# 4E/	.	.	8ee#X\	.	.	.
.	.	.	8ff#\J	.	.	.
.	.	.	.	(8qff#/	.	[
4c# 4F# 4E/	.	.	8.fff#/L)	4ccc# 4ff#\)	.	.
.	.	.	16eeen/Jk	.	.	.
*	*	*	*v	*v	*	*
=27	=27	=27	=27	=27	=27
4r	2.BB\	.	(4.eee 4.ccc#\	.	>
4B 4F# 4D/	.	.	.	.	.
.	.	.	8dddL 8bbW\	.	.
4B 4F# 4D/	.	.	8ccc# 8aa#X\	.	.
.	.	.	8dddJ 8bb\)	.	]]
*v	*v	*	*	*	*
!!LO:PB:g=original
=28	=28	=28	=28	=28
*	*	*8va	*	*
4DD/	.	(8ddddL 8fff#\	.	p
!	!	!LO:TX:b:t=leggiero.	!	!
.	.	8cccc# 8eee#X\	.	.
4B 4F# 4D\	.	8eeeen 8gggn\	.	.
.	.	16r	.	.
.	.	16ddddK 16fff#\	.	.
4B 4F# 4D\	.	8cccc# 8eeen\	.	.
.	.	8bbbJ 8ddd\	.	.
=29	=29	=29	=29	=29
4EE/	.	8aaaL 8ccc#'\	.	.
.	.	8ggg#X 8bb'\	.	.
4c# 4A 4E\	.	8fff# 8aa'\	.	.
.	.	8eee 8gg#'\	.	.
4c# 4A 4E\	.	8ddd 8ff#'\	.	.
.	.	8ccc#J 8ee'\	.	.
*	*	*X8va	*	*
=30	=30	=30	=30	=30
!	!	!LO:TX:a:t=loco	!	!
4EE/	.	8bbL 8dd'\	.	.
.	.	8aa 8cc#'\	.	.
4c# 4A 4E\	.	8gg# 8b'\	.	.
.	.	8ff# 8a'\	.	.
4r	.	8ee 8g#'\	.	.
.	.	8dd#XJ 8f##X'\	.	.
=31	=31	=31	=31	=31
4EE/	.	8eeL 8g#\	.	.
.	.	8ff#X 8a\	.	.
4d 4B 4E\	.	8ff##X 8a#X\	.	.
.	.	8gg# 8b\	.	.
4d 4G# 4E\	.	8ccc# 8ee\)	.	.
.	.	16r	.	.
.	.	(16bbJk 16dd\	.	.
=32	=32	=32	=32	=32
4AA/	.	4aa 4cc#\)	.	.
4c# 4A 4E\	.	4r	.	.
4r	.	(8gg#\L	.	p
.	.	8aa\J	.	.
!!LO:LB:g=original
=33	=33	=33	=33	=33
*^	*	*	*	*
4r	2.E#X\	.	8aa#X\L	.	.
.	.	.	8bb\	.	.
4g# 4c# 4B/	.	.	8bb#X\	.	.
.	.	.	8ccc#\	.	.
4g# 4c# 4B/	.	.	8ff##X\	.	.
.	.	.	8gg#\J)	.	.
=34	=34	=34	=34	=34	=34
4r	2.F#\	.	(4.bbn\	.	>
4f# 4c# 4A/	.	.	.	.	.
.	.	.	8aaw\L	.	.
4f# 4c# 4A/	.	.	8gg#\	.	.
.	.	.	8ff#X\J)	.	]]
=35	=35	=35	=35	=35	=35
4r	2.G#\	.	(8ee#X\L	.	.
.	.	.	8ff#\	.	.
4e 4B/	.	.	8ff##X\	.	.
.	.	.	8gg#\	.	.
4e 4Bn/	.	.	8b#X\	5	.
.	.	.	8cc#\J	3	.
=36	=36	=36	=36	=36	=36
4r	(2A\	.	4.dd\	4	.
4f#) 4c#/	.	.	.	.	.
.	.	.	8cc#\L	.	.
4r	4r	.	8bn\	.	.
.	.	.	8a\J)	.	.
*v	*v	*	*	*	*
=37	=37	=37	=37	=37
4BB/	.	(8a\L	.	<
.	.	8g#W\	.	.
4d 4G# 4F#\	.	8f##X\	.	.
.	.	8g#\	.	.
4d 4G# 4F#\	.	8ee\)	.	.
.	.	(8dd#X'\J	.	[[
=38	=38	=38	=38	=38
4C#/	.	8ddn'/L	.	>
.	.	8cc#'/	.	.
4c# 4A 4F#\	.	8b'/	.	.
.	.	8a'/	.	.
4r	.	8g#'/	.	.
.	.	8f#X'/J	.	]]
!!LO:LB:g=original
=39	=39	=39	=39	=39
4CC#/	.	8e#X/L	.	.
.	.	8g#/	.	.
4Bn 4E#X 4C#\	.	8B#X/	.	.
.	.	8c#/	.	.
4B 4E# 4C#\	.	8d/	.	.
.	.	8c#/J)	.	.
=40	=40	=40	=40	=40
(4FF#\	.	8BnW/L	.	.
.	.	8A/J	.	.
4A 4C#\)	.	4F#/	.	.
4r	.	(8gg#\L	.	p
.	.	8aa\J	.	.
=41	=41	=41	=41	=41
*^	*	*	*	*
4r	2.E#X\	.	8aa#X\L	.	.
.	.	.	8aa#\	.	.
4g# 4c# 4B/	.	.	8bb#X\	.	.
.	.	.	8ccc#\	.	.
4g# 4c# 4B/	.	.	8ff##X\	.	.
.	.	.	8gg#\J	.	.
=42	=42	=42	=42	=42	=42
4r	(2.F#\	.	4.bbn\	.	>
4f#) 4c# 4A/	.	.	.	.	.
.	.	.	8aaw\L	.	.
4r	.	.	8gg#\	.	.
.	.	.	8ff#X\J	.	]]
=43	=43	=43	=43	=43	=43
4r	2.AA#X\	.	8een\L	.	.
.	.	.	8ee#X\	.	.
4c# 4Gn 4E/	.	.	8ff#\	.	.
.	.	.	8ggn\	.	.
4c# 4G 4E/	.	.	8b#X\	.	.
.	.	.	8cc#\J	.	.
=44	=44	=44	=44	=44	=44
4r	(2.BB\	.	4.een\	.	>
4B) 4F# 4D/	.	.	.	.	.
.	.	.	8dd\L	.	.
4r	.	.	8cc#\	.	.
.	.	.	8bn\J)	.	]]
*v	*v	*	*	*	*
!!LO:LB:g=original
=45	=45	=45	=45	=45
*ped	*	*	*	*
8r	.	(4.a/	.	5
(8BBBn/L	.	.	.	.
8BB/	.	.	.	.
8D/J)	.	8gn/L	.	.
!	!	!LO:TX:b:t=riten.	!	!
4r	.	8B/	.	.
.	.	8d/J	.	.
=46	=46	=46	=46	=46
2.r	.	8gn\L	.	.
.	.	8b\	.	.
.	.	8dd\	.	.
.	.	8ggn\	.	.
.	.	8.eee\)	.	.
.	.	(16ddd\Jk	.	.
*Xped	*	*	*	*
=47	=47	=47	=47	=47
*	*	*^	*	*
*ped	*	*	*	*	*
4CC#/	.	8ddd\L	2ryy	.	.
.	.	8bb#X\	.	.	.
[4c#\	.	8ccc#\	.	.	.
.	.	8eee#X\J	.	.	.
*	*	*v	*v	*	*
*	*	*8va	*	*
*	*	*^	*	*
4e#X 4c#] 4G#\	.	8.aaa/L)	4bbn\	.	.
.	.	16gggn/Jk	.	.	.
*Xped	*	*	*	*	*
*	*	*v	*v	*	*
=48	=48	=48	=48	=48
*ped	*	*	*	*
.	.	8qfff# 8qaa/	.	.
(4F#\	.	4ffff#\	.	.
*	*	*X8va	*	*
4a 4c#\)	.	4r	.	.
!	!	!LO:TX:a:t=loco	!	!
4r	.	(8gg#\L	.	p
.	.	8aa\J	.	.
*Xped	*	*	*	*
=49	=49	=49	=49	=49
*^	*	*	*	*
4r	2.E#X\	.	8aa#X\L	.	.
.	.	.	8bb\	.	.
4g# 4c# 4B/	.	.	8bb#X\	.	.
.	.	.	8ccc#\	.	.
4g# 4c# 4B/	.	.	8ff##X\	.	.
.	.	.	8gg#\J	.	.
=50	=50	=50	=50	=50	=50
4r	2.F#\	.	4.bbn^\	.	>
4f# 4c# 4A/	.	.	.	.	.
.	.	.	8aaw\L	.	.
4f# 4c# 4A/	.	.	8gg#\	.	.
.	.	.	8ff#X\J	.	]]
!!LO:LB:g=original
=51	=51	=51	=51	=51	=51
4r	2.G#\	.	8ee#X\L	.	.
.	.	.	8ff#\	.	.
4e#X 4B/	.	.	8ff##X\	.	.
.	.	.	8gg#\	.	.
4e# 4Bn/	.	.	8b#X\	.	.
.	.	.	8cc#\J	.	.
=52	=52	=52	=52	=52	=52
4r	2A\	.	4.dd^\	.	>
4f# 4c#/	.	.	.	.	.
.	.	.	8cc#\L	.	.
4r	4r	.	8bn\	.	.
.	.	.	8a\J)	.	]]
*v	*v	*	*	*	*
=53	=53	=53	=53	=53
4BB/	.	(8a/L	.	<
.	.	8g#W/	.	.
4d 4G# 4F#\	.	8f##X/	.	.
.	.	8g#/	.	.
4d 4G# 4F#\	.	8ee/)	.	.
.	.	(8dd#X'/J	.	[[
=54	=54	=54	=54	=54
4C#/	.	8ddn'/L	.	>
.	.	8cc#'/	.	.
4c# 4A 4F#\	.	8b'/	.	.
.	.	8a'/	.	.
4r	.	8g#'/	.	.
.	.	8f#X'/J)	.	]]
=55	=55	=55	=55	=55
4CC#/	.	(8e#X/L	.	.
.	.	8g#/	.	.
4Bn 4E#X 4C#\	.	8B#X/	.	.
.	.	8c#/	.	.
4B 4E# 4C#\	.	8d/	.	.
.	.	8c#/J	.	.
=56	=56	=56	=56	=56
(4FF#\	.	8BnW/L	.	.
.	.	8A/J	.	.
4A 4C#\)	.	4F#/)	.	.
4r	.	(8gg#\L	.	p
.	.	8aa\J	.	.
!!LO:LB:g=original
=57	=57	=57	=57	=57
*^	*	*	*	*
4r	2.E#X\	.	8aa#X\L	.	.
.	.	.	8aa#\	.	.
4g# 4c# 4B/	.	.	8bb#X\	.	.
.	.	.	8ccc#\	.	.
4g# 4c# 4B/	.	.	8ff##X\	1	.
.	.	.	8gg#\J	3	.
=58	=58	=58	=58	=58	=58
4r	2F#\	.	4.bbn^\	.	>
4f# 4c# 4A/	.	.	.	.	.
.	.	.	8aaw\L	.	.
4r	4ryy	.	8gg#\	.	.
.	.	.	8ff#X\J	.	]]
=59	=59	=59	=59	=59	=59
4r	2.AA#X\	.	8ee\L	.	.
.	.	.	8ee#X\	.	.
4c# 4Gn 4En/	.	.	8ff#\	.	.
.	.	.	8ggn\	.	.
4c# 4G 4Eny/	.	.	8b#X\	.	.
.	.	.	8cc#\J	.	.
*v	*v	*	*	*	*
=60	=60	=60	=60	=60
!	!	!	!LO:TX:t=P:przekreślenie ołówkiem, prawdopodobnie cyfra "4" odnosząca się do palcowania	!
(4BB/	.	4.een^\	4	>
4B 4F# 4D\)	.	.	.	.
.	.	8dd\L	.	.
4r	.	8cc#\	.	.
.	.	8bn\J)	.	]]
=61	=61	=61	=61	=61
8r	.	(4.a/	.	.
(8BBBn/L	.	.	.	.
8BB/	.	.	.	.
8D/J)	.	8gn/L	.	.
!	!	!LO:TX:b:t=riten.	!	!
4r	.	8B/	.	.
.	.	8d/J	.	.
=62	=62	=62	=62	=62
2.r	.	8gn\L	.	.
.	.	8b\	.	.
.	.	8dd\	.	.
.	.	8ggn\	.	.
.	.	8.eee\)	.	.
.	.	(16ddd\Jk	.	.
!!LO:PB:g=original
=63	=63	=63	=63	=63
*	*	*^	*	*
4CC#/	.	8ddd\L	2ryy	.	.
.	.	8bb#X\	.	.	.
[4c#\	.	8ccc#\	.	.	.
.	.	8eee#X\J)	.	.	.
*	*	*	*8va	*	*
4e#X 4c#] 4G#\	.	8.aaa/L	4bbn\	.	.
.	.	16gggny/Jk	.	.	.
*	*	*v	*v	*	*
=64	=64	=64	=64	=64
.	.	8qfff# 8qaa/	.	.
(4F#\	.	4ffff#\	.	.
*	*	*X8va	*	*
4a 4c#\)	.	4r	.	.
*	*	*X8va	*	*
!	!	!LO:TX:a:t=loco	!	!
4r	.	(8cc#\L	.	.
.	.	8dd\J	.	.
=65	=65	=65	=65	=65
*^	*	*	*	*
4r	2.AA\	.	8dd#X\L	.	p
.	.	.	8ee\	.	.
4c# 4E/	.	.	8ee#X\	.	<
.	.	.	8ff#\	.	.
4c# 4E/	.	.	8cc#\	.	.
.	.	.	8ddn\J	.	.
=66	=66	=66	=66	=66	=66
4r	2.AA#X\	.	8dd#X\L	.	.
.	.	.	8een\	.	.
4c# 4F# 4E/	.	.	8ee#X\	.	.
.	.	.	8ff#\J	.	.
.	.	.	[8qff#/)	.	[
4c# 4F# 4E/	.	.	8.dddnL 8.ff#\]	.	.
.	.	.	16ccc#Jk 16een\	.	>
=67	=67	=67	=67	=67	=67
!	!	!	!LO:N:vis=2	!	!
4r	2.BB\	.	8%3ccc# 8%3ee\	.	.
4B 4F# 4D/	.	.	.	.	.
!	!	!	!LO:N:vis=2	!	!
.	.	.	[8%3bb [8%3dd\	.	.
4B 4F# 4D/	.	.	.	.	.
*v	*v	*	*	*	*
=68	=68	=68	=68	=68
!	!	!LO:N:vis=4	!	!
4DD/	.	16%3bb] 16%3dd\]	.	.
!	!	!LO:N:vis=4	!	!
.	.	16%3aa 16%3cc#\	.	.
4B 4F# 4D\	.	.	.	.
!	!	!LO:N:vis=4	!	!
.	.	16%3gg# 16%3b\	.	.
4B 4F# 4D\	.	.	.	.
!	!	!LO:N:vis=4	!	!
.	.	16%3ff# 16%3a\	.	]]
!!LO:LB:g=original
=69	=69	=69	=69	=69
*	*	*^	*	*
4EE/	.	(8dd#X/L	[2.g#\	.	p
.	.	8een/	.	2	.
4dny 4B 4E\	.	8ee#X/	.	5	.
.	.	8ff#/	.	2	.
4d 4B 4E\	.	8cc#/	.	.	.
.	.	8ddn/J	.	.	.
=70	=70	=70	=70	=70	=70
4EE/	.	8dd#X/L	2.g#\]	.	.
.	.	8een/	.	.	.
4dny 4B 4E\	.	8a#X/	.	.	.
.	.	8b/	.	.	.
4d 4B 4E\	.	8ee/	.	.	.
.	.	8ddn/J	.	.	.
=71	=71	=71	=71	=71	=71
4AA/	.	8dd/L	4a\	.	.
.	.	8cc#m/	.	.	.
4c# 4A 4E\	.	8b/	4r	.	.
.	.	8a/	.	.	.
4A 4BB\	.	8g#/	4d#X\	.	.
.	.	8f#/J	.	.	.
=72	=72	=72	=72	=72	=72
4G# 4E\	.	8e/L	4e\	.	.
.	.	8g#/	.	.	.
4r	.	8a/	4ryy	.	<
.	.	8b/	.	.	.
4r	.	8cc#/	4ryy	.	.
.	.	8dd/J	.	.	.
*	*	*v	*v	*	*
=73	=73	=73	=73	=73
*^	*	*	*	*
4r	2.AA\	.	8dd#X\L	.	.
.	.	.	8ee\	.	.
4c# 4A 4E/	.	.	8ee#X\	.	.
.	.	.	8ff#\	.	.
4c# 4A 4E/	.	.	8cc#\	.	.
.	.	.	8ddn\J	.	.
=74	=74	=74	=74	=74	=74
*	*	*	*^	*	*
4r	2.AA#X\	.	8dd#X\L	2ryy	.	.
.	.	.	8ee\	.	.	.
4c# 4F 4E/	.	.	8ee#X\	.	.	.
.	.	.	8ff#\J	.	.	.
.	.	.	.	(8qff#/	.	[
4c# 4F 4E/	.	.	8.fff#/L)	4ccc# 4ff#\)	.	.
.	.	.	16eeen/Jk	.	.	.
*	*	*	*v	*v	*	*
!!LO:LB:g=original
=75	=75	=75	=75	=75	=75
4r	2.BB\	.	(4.eee 4.ccc#\	.	>
4B 4F# 4D/	.	.	.	.	.
.	.	.	8dddL 8bbW\	.	.
4B 4F# 4D/	.	.	8ccc# 8aa#X\	.	.
.	.	.	8dddJ 8bb\	.	]]
*v	*v	*	*	*	*
=76	=76	=76	=76	=76
*	*	*8va	*	*
4DD/	.	8dddL 8ff#\	5	p
!	!	!LO:TX:b:t=leggiero.	!	!
.	.	8ccc# 8ee#X\	.	.
4B 4F# 4D\	.	8eeen 8ggn\	4	.
.	.	16r	5	.
.	.	16dddK 16ff#\	5	.
4B 4F# 4D\	.	8ccc# 8een\	4	.
.	.	8bbJ 8dd\	5	5
=77	=77	=77	=77	=77
4EE/	.	8aaL 8cc#'\	5	.
.	.	8gg# 8b'\	4	.
4c# 4A 4E\	.	8ff# 8a'\	3	.
.	.	8ee 8g#X'\	5	.
4c# 4A 4E\	.	8dd 8f#'\	4	.
.	.	8cc#J 8e'\	5	.
*	*	*X8va	*	*
=78	=78	=78	=78	=78
!	!	!LO:TX:a:t=loco	!	!
4EE/	.	8bbL 8dd'\	4	.
.	.	8aa 8cc#'\	5	.
4c# 4A 4E\	.	8gg# 8b'\	4	.
.	.	8ff# 8a'\	3	.
4r	.	8ee 8g#'\	5	.
.	.	8dd#XJ 8f##X\	4	.
=79	=79	=79	=79	=79
4EE/	.	8eeL 8g#\	5	.
.	.	8ff#X 8a\	4	.
4d 4B 4E\	.	8ff##X 8a#X\	5	.
.	.	8gg# 8b\	4	.
4d 4G# 4E\	.	8ccc# 8ee\)	.	.
.	.	16r	.	.
.	.	(16bbJk 16dd\	.	.
=80	=80	=80	=80	=80
(4AA/	.	4aa 4cc#\)	.	.
4c# 4A 4E\)	.	4r	.	.
4r	.	4r	.	.
!!LO:LB:g=original
=81||	=81||	=81||	=81||	=81||
*k[b-]	*	*k[b-]	*	*
!	!	!LO:TX:a:t=Con espressione.	!	!
!LO:TX:a:t=m.d	!	!	!	!
4F 4FF\	.	2A/	.	p
!	!	!LO:TX:a:t=m.g	!	!
4f 4c/	.	.	.	.
4f 4c/	.	4A/	.	.
=82	=82	=82	=82	=82
4E-X 4EE\	.	2A/	.	p
!	!	!LO:TX:a:t=m.g	!	!
4f 4c#X/	.	.	.	.
4f 4c#/	.	4A/	.	.
=83	=83	=83	=83	=83
!	!	!LO:TX:a:t=m.g	!	!
4D 4BBB-\	.	(4.d/	.	.
4B- 4D/	.	.	.	.
.	.	8c/L	.	.
4F#X 4C/	.	8B-/	.	.
.	.	8A/J)	.	.
=84	=84	=84	=84	=84
4BB- 4BBB-\	.	(8A^/	.	.
.	.	4G/)	.	.
!	!	!LO:TX:a:t=m.g	!	!
4G 4F 4D/	.	.	.	.
.	.	8r	.	.
4F 4D-X/	.	4G/	.	.
=85	=85	=85	=85	=85
4C 4CC\	.	(2G'/	.	.
!	!	!LO:TX:a:t=m.g	!	!
4E 4C/	.	.	.	.
4E 4C/	.	4G'/)	.	.
=86	=86	=86	=86	=86
4BB- 4BBB-\	.	(2G'/	.	.
!	!	!LO:TX:a:t=m.g	!	!
4e 4c/	.	.	.	.
4e 4c/	.	4G'/)	.	.
=87	=87	=87	=87	=87
4AA 4AAA\	.	(4.c/	.	.
!	!	!LO:TX:a:t=m.g	!	!
4E 4C/	.	.	.	.
.	.	8B-/L	.	.
4E 4C/	.	8A/	.	.
.	.	8G/J)	.	.
!!LO:LB:g=original
=88	=88	=88	=88	=88
4AA 4AAA\	.	(8G^/	.	.
.	.	4F/)	.	.
!	!	!LO:TX:a:t=m.g	!	!
4F 4C/	.	.	.	.
.	.	8r	.	.
4F 4C#X/	.	4F/	.	.
=89	=89	=89	=89	=89
4BB- 4BBB-\	.	(2F'/	.	.
!	!	!LO:TX:a:t=m.g	!	!
4f 4d\	.	.	.	.
4f 4d\	.	4F'/)	.	.
=90	=90	=90	=90	=90
4AA 4AAA\	.	(2F'/	.	.
!	!	!LO:TX:a:t=m.g	!	!
4f 4d\	.	.	.	.
4f 4d\	.	4F'/)	.	.
=91	=91	=91	=91	=91
*	*	*^	*	*
4GG 4GGG\	.	[2.B-/	(4B-\	.	.
!	!	!LO:TX:a:t=m.g	!	!	!
4E 4D/	.	.	4G\	.	.
4F 4D/	.	.	4F\)	.	.
=92	=92	=92	=92	=92	=92
4AA 4AAA\	.	(4B-/]	2E\	.	.
4d\	.	4A/	.	.	.
4c#X\	.	4E/)	4E\	.	.
*	*	*v	*v	*	*
=93	=93	=93	=93	=93
4DD\	.	4G/	.	.
4a 4d\	.	4F/	.	.
4a 4d\	.	4E/	.	.
=94	=94	=94	=94	=94
.	.	8qD/	.	.
4BBB-\	.	10D/L	.	.
.	.	10E/	.	.
.	.	10D/	.	.
4g#X 4d\	.	.	.	.
.	.	10C#X/	.	.
.	.	10D/J	.	.
4g# 4d\	.	8F/L	.	.
.	.	8E/J	.	.
!!LO:LB:g=original
=95	=95	=95	=95	=95
8r	.	8C#X/	.	.
8AAA\L	.	8r	.	.
8AA\	.	4r	.	<
8BB#X\	.	.	.	.
8C#X\J	.	8r	.	.
8r	.	(8E/	.	.
=96	=96	=96	=96	=96
2.r	.	8A/L	.	.
.	.	8c#X/	.	.
.	.	8d/	.	.
.	.	8e/	.	.
.	.	8f/	.	.
.	.	8g/J	.	[[
=97	=97	=97	=97	=97
!	!	!LO:TX:b:t=espressivo.	!	!
4FFF/	.	2a'/	.	.
(4c 4F'\	.	.	.	.
4f 4c'\)	.	4a'/)	.	.
=98	=98	=98	=98	=98
4E-X 4FF/	.	2a/	.	.
(4c#X 4F'\	.	.	.	.
4f 4c#'\)	.	4a/	.	.
=99	=99	=99	=99	=99
*	*	*^	*	*
4D 4DD/	.	(4.dd/	4r	.	.
(4B- 4G'\	.	.	4g 4d\	.	.
.	.	8cc/L	.	.	.
4d 4B-'\)	.	8b-/	8ryy	.	.
.	.	8a/J	8ryy	.	.
*	*	*v	*v	*	*
=100	=100	=100	=100	=100
*	*	*8va	*	*
*^	*	*	*	*
!	!	!	!	!	!LO:DY:a
2.g/)	4r	.	4.ddd 4.dd\	.	ppp
.	(4d 4B-'\	.	.	.	.
.	.	.	8cccL 8cc\	.	.
.	4B- 4G'\)	.	8bb- 8b-\	.	.
.	.	.	8aaJ 8a\	.	.
*v	*v	*	*	*	*
=101	=101	=101	=101	=101
4CC/	.	8gg 8g\	.	.
*	*	*X8va	*	*
.	.	8r	.	.
(4c 4G'\	.	4r	.	.
!	!	!LO:TX:a:t=loco	!	!
4e 4c'\)	.	4g/	.	.
!!LO:PB:g=original
=102	=102	=102	=102	=102
4BBB-/	.	2g/	.	.
(4c 4G'\	.	.	.	.
4e 4c'\)	.	4g/	.	.
=103	=103	=103	=103	=103
*	*	*^	*	*
4AAA/	.	4.cc/	4r	.	.
(4A 4F'\	.	.	4f 4c\	.	.
.	.	(8b-/L	.	.	.
4c 4A'\)	.	8a/	8ryy	.	.
.	.	8g/J	8ryy	.	.
*	*	*v	*v	*	*
=104	=104	=104	=104	=104
*	*	*8va	*	*
*^	*	*	*	*
!	!	!	!	!	!LO:DY:a
2.f/)	4r	.	4.ccc 4.cc\	.	ppp
.	(4c 4A'\	.	.	.	.
.	.	.	8bb-L 8b-\	.	.
.	4A 4F'\)	.	8aa 8a\	.	.
.	.	.	8ggJ 8g\	.	.
*v	*v	*	*	*	*
=105	=105	=105	=105	=105
4DD/	.	4ff 4f\	.	.
*	*	*X8va	*	*
(4A 4F 4D'\	.	4r	.	.
4d 4A 4F'\)	.	4ff 4f\	.	.
=106	=106	=106	=106	=106
4C 4CC/	.	2ff 2f\	.	<
(4A 4F 4D'\	.	.	.	.
4d 4A 4F'\)	.	4ff 4f\	.	[[
=107	=107	=107	=107	=107
4BBn 4BBBn/	.	[2.fff [2.ff\	.	f
4d 4A 4F\	.	.	.	.
4d 4A 4F\	.	.	.	.
=108	=108	=108	=108	=108
4EE/	.	4fff] 4ff\]	.	>
4d 4G#X 4E\	.	(4eee 4ee\	.	.
4d 4G# 4E\	.	4ddd 4dd\)	.	.
!!LO:LB:g=original
=109	=109	=109	=109	=109
4FF/	.	(4ddd 4dd\	.	.
4d 4c 4F\	.	4ccc 4cc\	.	.
4d#X 4c 4F#X\	.	4aa 4a\)	.	]]
=110	=110	=110	=110	=110
*^	*	*	*	*
4GG/	4ryy	.	2gg 2g\	.	.
4g 4c#X/	2G\	.	.	.	.
4a 4d/	.	.	4bn [4f/	.	.
*v	*v	*	*	*	*
=111	=111	=111	=111	=111
*	*	*^	*	*
4CC/	.	8dd/	4f\]	.	p
.	.	8r	.	.	.
(4G 4E'\	.	[2cc/	[2e\	.	.
4c 4G'\	.	.	.	.	.
=112	=112	=112	=112	=112	=112
4e 4c'\)	.	2cc/]	2e\]	.	.
4r	.	.	.	.	.
!	!	!	!	!	!LO:DY:a
4r	.	4cc/	4ryy	.	p
=113	=113	=113	=113	=113	=113
!	!	!	!	!	!LO:DY:a
4B- 4BB-\	.	(2cc'/	4r	.	<
(4B-'\	.	.	2g 2e 2c\	.	.
4B-'\)	.	4cc'/	.	.	.
=114	=114	=114	=114	=114	=114
*	*	*	*^	*	*
!	!	!LO:TX:t=sempre:dur=4qe:ext=ud:problem:text with extention lines	!	!	!	!
4A 4AA\	.	2cc'/	4r	4ryy	.	.
4c 4A\	.	.	(4f#X/	2e-X/	.	.
4G 4GG\	.	4cc'/)	4g/)	.	.	.
*	*	*	*v	*v	*	*
=115	=115	=115	=115	=115	=115
4F#X 4FF#X/	.	(2.ee-X/	4r	.	.
4c 4F#\	.	.	4a 4e-X\	.	.
[4c [4F#\	.	.	4a 4e-\	.	.
!!LO:LB:g=original
=116	=116	=116	=116	=116	=116
4c] 4F#\]	.	4dd/)	4r	.	.
4c 4F#X\	.	4r	4a 4d\	.	.
4c 4F#\	.	4dd/	4a 4d\	.	.
=117	=117	=117	=117	=117	=117
4B- 4BB-\	.	2dd/	4r	.	.
(4B-'\	.	.	2g 2d\	.	.
4B-'\)	.	4dd/	.	.	.
=118	=118	=118	=118	=118	=118
4A 4AA\	.	2dd/	4r	.	.
4c 4A\	.	.	4f 4d\	.	.
4c 4A\	.	(4dd/	4f 4d\	.	.
=119	=119	=119	=119	=119	=119
4G#X 4GG#X/	.	2.ff^/	4r	.	.
4d 4G#\	.	.	4bn 4f\	.	.
[4d [4G#\	.	.	4b 4f\	.	.
=120	=120	=120	=120	=120	=120
4d] 4G#\]	.	4ee/	4r	.	.
4d 4G#X\	.	4r	4bn 4e\	.	.
4d 4G#\	.	4ee/)	4b 4e\	.	.
=121	=121	=121	=121	=121	=121
4C 4CC/	.	2ee/	4r	.	.
(4c'\	.	.	2a 2e\	.	.
4c'\)	.	4ee/	.	.	.
=122	=122	=122	=122	=122	=122
4BBn 4BBBn/	.	2ee/	4r	.	.
4d 4Bn\	.	.	4dd 4g 4e\	.	.
4d 4B\	.	4ee/	4dd 4g 4e\	.	.
!!LO:LB:g=original
=123	=123	=123	=123	=123	=123
4AA 4AAA/	.	[2.gg/	4r	.	f
4e 4c 4A\	.	.	4cc 4g\	.	.
[4e [4c [4A\	.	.	4cc 4g\	.	.
=124	=124	=124	=124	=124	=124
4e] 4c] 4A\]	.	2gg/]	4cc 4g\	.	.
4e 4c 4A\	.	.	4cc 4g\	.	.
4e 4c 4A\	.	4ff#X/	4cc 4f#X\	.	>
=125	=125	=125	=125	=125	=125
.	.	8qff/	.	.	.
4e 4A#X\	.	4ee/	4cc#X 4g\	.	.
4e 4A#\	.	4dd#X/	4cc# 4g\	.	.
4e 4A#\	.	4ee/	4cc# 4g\	.	.
=126	=126	=126	=126	=126	=126
4e 4A#X\	.	4gg/	4cc#X 4g\	.	.
4f#X 4A#\	.	4ff/	4cc#\	.	.
4g 4A#\	.	4ee/	4cc#\	.	.
=127	=127	=127	=127	=127	=127
4f#X 4Bn\	.	4bbn/	8dd#X 8bn\	.	] p
.	.	.	8r	.	.
4B\	.	4r	4aa 4cc\	.	.
4B\	.	4bb/	4gg#X 4b-\	.	.
=128	=128	=128	=128	=128	=128
(4BBn/	.	4bbn/	4r	.	.
4Bn\)	.	4r	4ggn 4a#X\	.	.
4B\	.	4bb/	4ff#X 4an\	.	.
*	*	*v	*v	*	*
=129	=129	=129	=129	=129
.	.	8qee 8qg/	.	>
(4BBn/	.	(4.eee\	.	.
4Bn\)	.	.	.	.
.	.	8ddd\L	.	.
[4B\	.	8ccc\	.	.
.	.	8bbn\J)	.	]]
!!LO:LB:g=original
=130	=130	=130	=130	=130
*^	*	*^	*	*
(4g^/	2.b- 2.B\]	.	(4bbn/	2.ee\	.	.
4f#X/)	.	.	4aa#X/)	.	.	.
4f#/	.	.	8r	.	.	.
.	.	.	8aa#/	.	.	.
*v	*v	*	*	*	*	*
=131	=131	=131	=131	=131	=131
(4BBn/	.	4bbn/	4dd#X 4bn\	.	.
4Bn\)	.	4r	4aa 4cc\	.	.
4B\	.	4bb/	4gg#X 4b\	.	.
=132	=132	=132	=132	=132	=132
(4BBn/	.	4bbn/	4r	.	.
4Bn\)	.	4r	4ggn 4a#X\	.	.
4B\	.	4bb/	4ff#X 4an\	.	.
*	*	*v	*v	*	*
=133	=133	=133	=133	=133
.	.	8qee 8qg/	.	>
4BBn/	.	(4ggg\	.	.
4Bn\	1	8fff#X\L	.	.
.	.	8eee\	.	.
[4B\	5	8ddd\	.	.
.	.	8ccc\J)	.	]]
=134	=134	=134	=134	=134
*^	*	*^	*	*
(4g^/	2.b- 2.B\]	.	(4bbn/	2.ee\	.	.
4f#X/)	.	.	4aa#X/)	.	.	.
4f#/	.	.	8r	.	.	.
.	.	.	8aa#/	.	.	.
*v	*v	*	*	*	*	*
=135	=135	=135	=135	=135	=135
4BBn/	.	4bbn/	4dd#X 4bn\	.	p
*	*	*v	*v	*	*
*clefG2	*	*	*	*
(4f#X 4Bn'/	.	4r	.	.
4bn 4f#'/)	.	4bb\	.	.
=136	=136	=136	=136	=136
(4dd#X 4f#X/	.	4bbn\	.	.
4ff#X\)	.	4r	.	.
8r	.	4bb\	.	.
*clefF4	*	*	*	*
8A 8AA\	.	.	.	.
!!LO:LB:g=original
=137	=137	=137	=137	=137
.	.	8qffn/	.	.
4G#X 4GG#X\	.	(4.fffn^\	.	.
(4d 4G#'\	.	.	.	.
.	.	8eee\L	.	.
4f#X 4d'\)	.	8ddd\	.	.
.	.	8ccc\J)	.	.
*clefG2	*	*	*	*
=138	=138	=138	=138	=138
4dd 4g#X\	.	(8ccc\	.	.
.	.	4bbn\)	.	.
4ff 4dd\	.	.	.	.
.	.	8r	.	.
!	!	!LO:TX:t=dimi-nu-en-do:dur=4qe:ext=ud:problem:text with extention lines	!	!
4r	.	4bb\	.	>
*clefF4	*	*	*	*
=139	=139	=139	=139	=139
4Gn 4GGn\	.	4bb-\	.	.
(4d 4E'\	.	4r	.	.
4e#X 4d'\	.	4bbn\	.	.
*clefG2	*	*	*	*
=140	=140	=140	=140	=140
4dd 4g'\	.	4bb-\	.	.
4ee#X 4dd'\)	.	4r	.	.
!	!	!LO:TX:b:t=sempre	!	!
!	!	!LO:TX:t=sempre-:dur=4qe:ext=ud:problem:text with extention lines	!	!
4r	.	4bbn\	.	.
*clefF4	*	*	*	*
=141	=141	=141	=141	=141
.	.	8qffn/	.	.
4F#X 4FF#X/	.	(4.fff#X^\	.	.
*clefG2	*	*	*	*
(4f#X 4d'/	.	.	.	.
.	.	8eee\L	.	.
4bn 4f#'/	.	8ddd\	.	.
.	.	8ccc#X\J)	.	.
=142	=142	=142	=142	=142
4dd 4f#X'/	.	(8ccc#X\	.	.
.	.	4bbn\)	.	.
4ff#X 4dd\)	.	.	.	.
.	.	8r	.	]
4r	.	(4bb\	.	.
*clefF4	*	*	*	*
!!LO:PB:g=original
=143	=143	=143	=143	=143
!	!	!LO:TX:b:t=  e ritard.	!	!
(4F-X 4FFn/	.	2bbn\)	.	.
4f 4d 4Bn\)	.	.	.	.
4r	.	(4bb\	.	.
=144	=144	=144	=144	=144
(4E 4EE/	.	2bbn\)	.	.
4g#X 4d 4Bn\)	.	.	.	.
4r	.	4bb\	.	.
=145	=145	=145	=145	=145
.	.	16qqbbn/LL	.	.
.	.	16qqccc/	.	.
.	.	16qqddd/JJ	.	.
*	*	*tremolo	*	*
!	!	!LO:TX:t=P:problem:tremolo rozciągniete do końca systemu, str. 4.	!	!
(4E 4EE/	.	2.cccT\	.	.
4gn 4c 4B-X\)	.	.	.	.
4r	.	.	.	.
=146	=146	=146	=146	=146
2.r	.	2.ccc\	.	.
=147	=147	=147	=147	=147
*	*	*^	*	*
.	.	.	(8qA 8qC 8qFF/	.	.
4r	.	2.ccc/	2a\)	.	.
4c 4F\	.	.	.	.	.
4r	.	.	4a\	.	.
=148	=148	=148	=148	=148	=148
.	.	.	(8qA 8qE-X 8qFF/	.	.
4r	.	2.ccc#X/	2a\)	.	.
4c#X 4F\	.	.	.	.	.
4r	.	.	4a\	.	.
.	.	16qqbb#X/LL	.	.	.
.	.	16qqccc#/JJ	.	.	.
*	*	*Xtremolo	*	*	*
!!LO:LB:g=original
=149	=149	=149	=149	=149	=149
.	.	.	8qBB-/	.	.
!	!	!LO:TX:t=P:problem:tremolo rozciągniete do końca systemu, str. 4.	!	!	!
*	*	*tremolo	*	*	*
4r	.	[4dddT/	4.dd\	.	.
4g 4f 4B-\	.	(24ddd/LL]	.	.	.
.	.	24ccc#X/	.	.	.
.	.	24ddd/	.	.	.
.	.	24ddd#X/	8cc\L	.	.
.	.	24eee/	.	.	.
.	.	24fff/	.	.	.
4r	.	24fff#X/	8b-\	.	.
*	*	*8va	*	*	*
.	.	24gg/	.	.	.
.	.	24gg#X/	.	.	.
.	.	24aa/	8aa\J	.	.
.	.	24bb-/	.	.	.
.	.	24bbn/JJ	.	.	.
=150	=150	=150	=150	=150	=150
4r	.	20cccn/LL	2.g\	.	.
.	.	20ccc#X/	.	.	.
.	.	20eee/	.	.	.
.	.	20dddn/	.	.	.
.	.	20bb-X/	.	.	.
(4f 4d 4B-X'\	.	20gg/	.	.	.
*	*	*X8va	*	*	*
!	!	!LO:TX:a:t=loco	!	!	!
.	.	20ccc#X/	.	.	.
.	.	20eee/	.	.	.
.	.	20ddd/	.	.	.
.	.	20bb-/	.	.	.
4d 4B- 4G'\)	.	20gg/	.	.	.
.	.	20cc#X/	.	.	.
.	.	20ee/	.	.	.
.	.	20dd/	.	.	.
.	.	20b-/JJ)	.	.	.
*	*	*Xtremolo	*	*	*
=151	=151	=151	=151	=151	=151
4CC/	.	(16g/LL	2g\	.	.
.	.	16g#X/	.	.	.
.	.	16a/	.	.	.
.	.	16bn/	.	.	.
(4c 4G'\	.	20b/	.	.	.
.	.	20ccn/	.	.	.
.	.	20cc#X/	.	.	.
.	.	20dd/	.	.	.
.	.	20dd#X/	.	.	.
4e 4c'\)	.	20ee/	4g#\	.	.
.	.	20ff/	.	.	.
.	.	20ff#X/	.	.	.
.	.	20ggn/	.	.	.
.	.	20gg#X/JJ)	.	.	.
!!LO:LB:g=original
=152	=152	=152	=152	=152	=152
4r	.	(20aa/LL	2g\	.	.
.	.	20bb-/	.	.	.
.	.	20bbn/	.	.	.
.	.	20ccc/	.	.	.
.	.	20ccc#X/	.	.	.
4e 4c\	.	20ddd/	.	.	.
.	.	20ddd#X/	.	.	.
.	.	20eee/	.	.	.
.	.	20fff/	.	.	.
.	.	20fff#X/	.	.	.
*	*	*v	*v	*	*
*	*	*8va	*	*
*	*	*^	*	*
4c 4G\	.	20ggn/	4g 4e\	.	.
.	.	20gg#X/	.	.	.
.	.	20aa/	.	.	.
.	.	20bb-/	.	.	.
.	.	20bbn/JJ	.	.	.
=153	=153	=153	=153	=153	=153
4r	.	16ccc/LL	4.cc\	.	.
.	.	16ccc#X/	.	.	.
.	.	16ddd/	.	.	.
.	.	16ddd#X/	.	.	.
4f 4c 4A\	.	20eee/	.	.	.
.	.	20ggg/	.	.	.
.	.	20fff/	.	.	.
.	.	.	8b-\L	.	<
.	.	20cccn/	.	.	.
.	.	20aa/	.	.	.
4r	.	20eee/	8a\	.	.
*	*	*X8va	*	*	*
!	!	!LO:TX:a:t=loco	!	!	!
.	.	20ggg/	.	.	.
.	.	20fff/	.	.	.
.	.	.	8g\J	.	.
.	.	20ccc/	.	.	.
.	.	20aa/JJ	.	.	.
=154	=154	=154	=154	=154	=154
4r	.	20ee/LL	2f\	.	.
.	.	20gg/	.	.	.
.	.	20ff/	.	.	.
.	.	20cc/	.	.	.
.	.	20a/	.	.	.
4c 4A\	.	20e/	.	.	.
.	.	20g/	.	.	.
.	.	20f/	.	.	.
.	.	20c/	.	.	.
.	.	20A/	.	.	.
4r	.	20E/	4r	.	[
.	.	20G/	.	.	.
.	.	20F/	.	.	.
.	.	20C/	.	.	.
.	.	20AA/JJ)	.	.	.
*	*	*v	*v	*	*
!!LO:LB:g=original
=155	=155	=155	=155	=155
!	!	!	!	!LO:DY:a
4DD-X/	.	2ff 2f\	.	f <
(4A-X 4D-X'\	.	.	.	.
4d-X 4A-'\)	.	4ff 4f\	.	.
=156	=156	=156	=156	=156
4AAA-X/	.	2ff 2f\	.	.
4F 4C'\	.	.	.	.
4c 4F'\	.	4ff 4f\	.	[[
=157	=157	=157	=157	=157
*	*	*8va	*	*
!	!	!LO:TX:a:t=appassionato.	!	!
4BBB-/	.	4.ddd-X 4.dd-X\	.	ff
4G-X 4BB-\	.	.	.	.
.	.	8cccL 8cc\	.	.
4d-X 4G-\	.	8bb- 8b-\	.	.
.	.	8aa-XJ 8a-X\	.	.
*clefG2	*	*	*	*
=158	=158	=158	=158	=158
!	!	!LO:N:vis=8	!	!
4g-X 4B-/	.	(4aa-X 4a-X\	.	.
4dd-X 4g-/	.	4.gg 4.g\)	.	.
4ddn 4a-X 4Bn/	.	.	.	.
!	!	!LO:N:vis=4	!	!
.	.	8ff 8f\	.	>]
*clefF4	*	*	*	*
=159	=159	=159	=159	=159
!	!	!LO:TX:b:t=dolcissimo.	!	!
4CC/	.	2ccc 2cc\	.	p
*clefG2	*	*	*	*
(4an 4f 4c'/	.	.	.	.
4cc 4a 4f'/)	.	4ccc 4cc\	.	.
*clefF4	*	*	*	*
=160	=160	=160	=160	=160
*^	*	*	*	*
4CC/	4ryy	.	(8ccc 8cc\	.	pp
*	*	*	*X8va	*	*
!	!	!	!LO:TX:a:t=loco.	!	!
.	.	.	[4.ee [4.b-\)	.	.
*clefG2	*	*	*	*	*
4a/	2c\	.	.	.	.
4g/	.	.	4ee] 4b-\]	.	.
*v	*v	*	*	*	*
*clefF4	*	*	*	*
=161	=161	=161	=161	=161
4FF/	.	2.ff 2.a\	.	.
(4c 4A\	.	.	.	.
4f 4c\)	.	.	.	.
*	*	*clefF4	*	*
!!LO:LB:g=original
=162	=162	=162	=162	=162
2r	.	2FFF;/	.	.
*	*	*clefG2	*	*
!	!	!LO:TX:a:t=risvegliato	!	!
!	!	!LO:TX:a:t=Tempo I.	!	!
4r	.	8cc#X\L	.	p
.	.	8dd\J	.	.
=163||	=163||	=163||	=163||	=163||
*k[f#c#g#]	*	*k[f#c#g#]	*	*
*^	*	*	*	*
4r	2.AA\	.	8dd#X\L	.	<
.	.	.	8ee\	.	.
4c# 4E/	.	.	8ee#X\	.	.
.	.	.	8ff#\	.	.
4c# 4E/	.	.	8cc#\	.	.
.	.	.	8ddn\J	.	.
=164	=164	=164	=164	=164	=164
4r	2.AA#X\	.	8dd#X\L	.	.
.	.	.	8een\	.	.
4c# 4F# 4E/	.	.	8ee#X\	.	.
.	.	.	8ff#\J	.	.
.	.	.	[8qff#/	.	[
4c# 4F# 4E/	.	.	8.dddL 8.ff#\]	.	.
.	.	.	16ccc#Jk 16een\	.	>
=165	=165	=165	=165	=165	=165
!	!	!	!LO:N:vis=2	!	!
4r	2.BB\	.	8%3ccc# 8%3ee\	.	.
4B 4F# 4D/	.	.	.	.	.
!	!	!	!LO:N:vis=2	!	!
.	.	.	[8%3bb [8%3dd\	.	]]
4B 4F# 4D/	.	.	.	.	.
*v	*v	*	*	*	*
=166	=166	=166	=166	=166
!	!	!LO:N:vis=4	!	!
4DD/	.	16%3bb] 16%3dd\]	.	.
!	!	!LO:N:vis=4	!	!
.	.	16%3aa 16%3cc#\	.	.
4B 4F# 4D\	.	.	.	.
!	!	!LO:N:vis=4	!	!
.	.	16%3gg# 16%3b\	.	.
4B 4F# 4D\	.	.	.	.
!	!	!LO:N:vis=4	!	!
.	.	16%3ff# 16%3a\	.	.
=167	=167	=167	=167	=167
*	*	*^	*	*
4EE/	.	(8dd#X/L	[2.g#\	.	p
.	.	8ee/	.	.	.
4d 4B 4E\	.	8ee#X/	.	.	.
.	.	8ff#/	.	.	.
4d 4B 4E\	.	8cc#/	.	.	.
.	.	8ddn/J	.	.	.
!!LO:LB:g=original
=168	=168	=168	=168	=168	=168
4EE/	.	8dd#X/L	2.g#\]	.	.
.	.	8een/	.	.	.
4d 4B 4E\	.	8a#X/	.	.	.
.	.	8b/	.	.	.
4d 4B 4E\	.	8.ee/	.	.	.
.	.	16ddn/Jk	.	.	.
=169	=169	=169	=169	=169	=169
4AA/	.	8dd/L	4a\	.	.
.	.	8cc#m/	.	.	.
4c# 4A 4E\	.	8b/	4r	.	.
.	.	8a/	.	.	.
4A 4BB\	.	8g#/	4d#X\	.	.
.	.	8f#/J	.	.	.
=170	=170	=170	=170	=170	=170
4G# 4E\	.	8e/L	4e\	.	.
.	.	8g#/	.	.	.
4r	.	8a/	4ryy	.	<
.	.	8b/	.	.	.
4r	.	8cc#/	4ryy	.	.
.	.	8dd/J	.	.	.
*	*	*v	*v	*	*
=171	=171	=171	=171	=171
*^	*	*	*	*
4r	2.AA\	.	8dd#X\L	.	.
.	.	.	8ee\	.	.
4c# 4E/	.	.	8ee#X\	.	.
.	.	.	8ff#\	.	.
4c# 4E/	.	.	8cc#\	.	.
.	.	.	8ddn\J	.	.
=172	=172	=172	=172	=172	=172
*	*	*	*^	*	*
4r	2.AA#X\	.	8dd#X\L	2ryy	.	.
.	.	.	8een\	.	.	.
4c# 4F# 4E/	.	.	8ee#X\	.	.	.
.	.	.	8ff#\J	.	.	.
.	.	.	.	(8qff#/	.	[
4c# 4F# 4E/	.	.	8.fff#/L)	4ccc# 4ff#\)	.	.
.	.	.	16eeen/Jk	.	.	.
*	*	*	*v	*v	*	*
=173	=173	=173	=173	=173	=173
4r	2.BB\	.	(4.eee 4.ccc#\	.	>
4B 4F# 4D/	.	.	.	.	.
.	.	.	8dddL 8bbW\	.	.
4B 4F# 4D/	.	.	8ccc# 8aa#X\	.	.
.	.	.	8dddJ 8bb\	.	]]
*v	*v	*	*	*	*
!!LO:PB:g=original
=174	=174	=174	=174	=174
*	*	*8va	*	*
4DD/	.	8ddddL 8fff#\	.	p
!	!	!LO:TX:b:t=leggiero.	!	!
.	.	8cccc# 8eee#X\	.	.
4B 4F# 4D\	.	8eeeen 8gggn\)	.	.
.	.	16r	.	.
.	.	(16ddddK 16fff#\	.	.
4B 4F# 4D\	.	8cccc# 8eeen\	.	.
.	.	8bbbJ 8ddd\	.	.
=175	=175	=175	=175	=175
4EE/	.	8aaaL 8ccc#'\	.	.
.	.	8ggg#X 8bb'\	.	.
4c# 4A 4E\	.	8fff# 8aa'\	.	.
.	.	8eee 8gg#'\	.	.
4c# 4A 4E\	.	8ddd 8ff#'\	.	.
.	.	8ccc#J 8ee'\	.	.
*	*	*X8va	*	*
=176	=176	=176	=176	=176
!	!	!LO:TX:a:t=loco	!	!
4EE/	.	8bbL 8dd'\	.	.
.	.	8aa 8cc#'\	.	.
4c# 4A 4E\	.	8gg# 8b'\	.	.
.	.	8ff# 8a'\	.	.
4r	.	8ee 8g#'\	.	.
.	.	8dd#XJ 8f##X'\	.	.
=177	=177	=177	=177	=177
4EE/	.	8eeL 8g#\	.	.
.	.	8ff#X 8a\	.	.
4d 4B 4E\	.	8ff##X 8a#X\	.	.
.	.	8gg# 8b\	.	.
4d 4G# 4E\	.	8ccc# 8ee\)	.	.
.	.	16r	.	.
.	.	(16bbJk 16dd\	.	.
=178	=178	=178	=178	=178
4AA/	.	4aa 4cc#\)	.	.
4c# 4A 4E\	.	4r	.	.
4r	.	(8gg#\L	.	p
.	.	8aa\J	.	.
=179	=179	=179	=179	=179
*^	*	*	*	*
4r	2.E#X\	.	8aa#X\L	.	.
.	.	.	8bb\	.	.
4g# 4c# 4B/	.	.	8bb#X\	.	.
.	.	.	8ccc#\	.	.
4g# 4c# 4B/	.	.	8ff##X\	.	.
.	.	.	8gg#\J)	.	.
!!LO:LB:g=original
=180	=180	=180	=180	=180	=180
4r	2.F#\	.	(4.bbn^\	.	.
4f# 4c# 4A/	.	.	.	.	.
.	.	.	8aaw\L	.	.
4f# 4c# 4A/	.	.	8gg#\	.	.
.	.	.	8ff#\J	.	.
=181	=181	=181	=181	=181	=181
4r	2.G#\	.	8ee#X\L	.	.
.	.	.	8ff#\	.	.
4e#X 4B/	.	.	8ff##X\	.	.
.	.	.	8gg#\	.	.
4e# 4Bn/	.	.	8b#X\	.	.
.	.	.	8cc#\J	.	.
=182	=182	=182	=182	=182	=182
4r	2A\	.	4.dd^\	.	.
4f# 4c#/	.	.	.	.	.
.	.	.	8cc#\L	.	>
4r	4r	.	8bn\	.	.
.	.	.	8a\J	.	]]
*v	*v	*	*	*	*
=183	=183	=183	=183	=183
4BB/	.	8a\L	.	<
.	.	8g#W\	.	.
4d 4G# 4F#\	.	8f##X\	.	.
.	.	8g#\	.	.
4d 4G# 4F#\	.	8ee\)	.	.
.	.	(8dd#X'\J	.	[[
=184	=184	=184	=184	=184
(4C#/	.	8ddn'/L	.	>
.	.	8cc#'/	.	.
4c# 4A 4F#\)	.	8b'/	.	.
.	.	8a'/	.	.
4r	.	8g#'/	.	.
.	.	8f#X'/J	.	]]
=185	=185	=185	=185	=185
4CC#/	.	8e#X/L	.	.
.	.	8g#/	.	.
4Bn 4E#X 4C#\	.	8B#X/	.	.
.	.	8c#/	.	.
4B 4E# 4C#\	.	8d/	.	.
.	.	8c#/J)	.	.
!!LO:LB:g=original
=186	=186	=186	=186	=186
(4FF#\	.	8BnW/L	.	.
.	.	8A/J	.	.
4A 4C#\)	.	4F#/	.	.
4r	.	(8gg#\L	.	p
.	.	8aa\J	.	.
=187	=187	=187	=187	=187
*^	*	*	*	*
4r	(2.E#X\	.	8aa#X\L	.	.
.	.	.	8aa#\	.	.
4g# 4c# 4Bn)/	.	.	8bb#X\	.	.
.	.	.	8ccc#\	.	.
4g# 4c# 4Bn/	.	.	8ff##X\	.	.
.	.	.	8gg#\J	.	.
=188	=188	=188	=188	=188	=188
4r	2.F#\	.	4.bbn^\	.	>
4f# 4c# 4A/	.	.	.	.	.
.	.	.	8aaw\L	.	.
4r	.	.	8gg#\	.	.
.	.	.	8ff#X\J	.	]]
=189	=189	=189	=189	=189	=189
4r	2.AA#X\	.	8ee\L	.	p
.	.	.	8ee#X\	.	.
4c# 4Gn 4En/	.	.	8ff#\	.	.
.	.	.	8ggn\	.	.
4c# 4G 4En/	.	.	8b#X\	.	.
.	.	.	8cc#\J	.	.
*v	*v	*	*	*	*
=190	=190	=190	=190	=190
(4BB/	.	4.een^\	.	>
4B 4F# 4D\)	.	.	.	.
.	.	8dd\L	.	.
4r	.	8cc#\	.	.
.	.	8bn\J)	.	]]
=191	=191	=191	=191	=191
8r	.	(4.a/	.	.
(8BBBn/L	.	.	.	.
8BB/	.	.	.	.
8D/J)	.	8gn/L	.	.
!	!	!LO:TX:b:t=ritard.	!	!
4r	.	8B/	.	.
.	.	8d/J	.	.
!!LO:LB:g=original
=192	=192	=192	=192	=192
2.r	.	8gn\L	.	.
.	.	8b\	.	.
.	.	8dd\	.	.
.	.	8ggn\	.	.
.	.	8.eee\)	.	.
.	.	(16ddd\Jk	.	.
=193	=193	=193	=193	=193
*	*	*^	*	*
!	!	!LO:TX:b:t=a tempo.	!	!	!
4CC#/	.	8ddd\L	2ryy	.	.
.	.	8bb#X\	.	.	.
[4c#\	.	8ccc#\	.	.	.
.	.	8eee#X\J	.	.	.
*	*	*v	*v	*	*
*	*	*8va	*	*
*	*	*^	*	*
4e#X 4c#] 4G#\	.	8.aa/L)	4bn\	.	.
.	.	16ggn/Jk	.	.	.
*	*	*v	*v	*	*
=194	=194	=194	=194	=194
.	.	8qff# 8qa/	.	.
(4F#\	.	4ff#\	.	.
*	*	*X8va	*	*
4a 4c#\)	.	4r	.	.
!	!	!LO:TX:a:t=loco.	!	!
4r	.	(8cc#\L	.	p
.	.	8dd\J	.	.
=195	=195	=195	=195	=195
*^	*	*	*	*
4r	2.AA\	.	8dd#X\L	.	.
.	.	.	8ee\	.	.
4c# 4E/	.	.	8ee#X\	.	<
.	.	.	8ff#\	.	.
4c# 4E/	.	.	8cc#\	.	.
.	.	.	8ddn\J	.	.
=196	=196	=196	=196	=196	=196
4r	2.AA#X\	.	8dd#X\L	.	.
.	.	.	8een\	.	.
4c# 4F# 4E/	.	.	8ee#X\	.	.
.	.	.	8ff#\J	.	.
.	.	.	[8qff#/)	.	[
4c# 4F# 4E/	.	.	8.dddnL 8.ff#\]	.	.
.	.	.	16ccc#Jk 16een\	.	>
=197	=197	=197	=197	=197	=197
!	!	!	!LO:N:vis=2	!	!
4r	2.BB\	.	8%3ccc# 8%3ee\	.	.
4B 4F# 4D/	.	.	.	.	.
!	!	!	!LO:N:vis=2	!	!
.	.	.	[8%3bb [8%3dd\	.	.
4B 4F# 4D/	.	.	.	.	.
*v	*v	*	*	*	*
=198	=198	=198	=198	=198
!	!	!LO:N:vis=4	!	!
4DD/	.	16%3bb] 16%3dd\]	.	.
!	!	!LO:N:vis=4	!	!
.	.	16%3aa 16%3cc#\	.	.
4B 4F# 4D\	.	.	.	.
!	!	!LO:N:vis=4	!	!
.	.	16%3gg# 16%3b\	.	.
4B 4F# 4D\	.	.	.	.
!	!	!LO:N:vis=4	!	!
.	.	16%3ff# 16%3a\	.	]]
!!LO:LB:g=original
=199	=199	=199	=199	=199
*	*	*^	*	*
4EE/	.	(8dd#X/L	[2.g#\	.	p
.	.	8ee/	.	.	.
4d 4B 4E\	.	8ee#X/	.	.	.
.	.	8ff#/	.	.	.
4d 4B 4E\	.	8cc#/	.	.	.
.	.	8ddn/J	.	.	.
=200	=200	=200	=200	=200	=200
4EE/	.	8dd#X/L	2.g#\]	.	.
.	.	8een/	.	.	.
4d 4B 4E\	.	8a#X/	.	.	.
.	.	8b/	.	.	.
4d 4B 4E\	.	8.ee/	.	.	.
.	.	16ddn/Jk	.	.	.
=201	=201	=201	=201	=201	=201
4AA/	.	8dd/L	4a\	.	.
.	.	8cc#m/	.	.	.
4c# 4A 4E\	.	8b/	4r	.	.
.	.	8a/	.	.	.
4A 4BB\	.	8g#/	4d#X\	.	.
.	.	8f#/J	.	.	.
=202	=202	=202	=202	=202	=202
4G# 4E\	.	8e/L	4e\	.	.
.	.	8g#/	.	.	.
4r	.	8a/	4ryy	.	<
.	.	8b/	.	.	.
4r	.	8cc#/	4ryy	.	.
.	.	8dd/J	.	.	.
*	*	*v	*v	*	*
=203	=203	=203	=203	=203
*^	*	*	*	*
4r	2.AA\	.	8dd#X\L	.	.
.	.	.	8ee\	.	.
4c# 4E/	.	.	8ee#X\	.	.
.	.	.	8ff#\	.	.
4c# 4E/	.	.	8cc#\	.	.
.	.	.	8ddn\J	.	.
=204	=204	=204	=204	=204	=204
*	*	*	*^	*	*
4r	2.AA#X\	.	8dd#X\L	2ryy	.	.
.	.	.	8een\	.	.	.
4c# 4F# 4E/	.	.	8ee#X\	.	.	.
.	.	.	8ff#\J	.	.	.
.	.	.	.	(8qff#/	.	[
4c# 4F# 4E/	.	.	8.fff#/L)	4ccc# 4ff#\)	.	.
.	.	.	16eeen/Jk	.	.	.
*	*	*	*v	*v	*	*
!!LO:LB:g=original
=205	=205	=205	=205	=205	=205
4r	2.BB\	.	(4.eee 4.ccc#\	.	.
4B 4F# 4D/	.	.	.	.	.
.	.	.	8dddL 8bbW\	.	.
4B 4F# 4D/	.	.	8ccc# 8aa#X\	.	.
.	.	.	8dddJ 8bb\	.	.
*v	*v	*	*	*	*
=206	=206	=206	=206	=206
*	*	*8va	*	*
4DD/	.	8dddL 8ff#\	.	p
!	!	!LO:TX:b:t=leggiero.	!	!
.	.	8ccc# 8ee#X\	.	.
4B 4F# 4D\	.	8eeen 8ggn\)	.	.
.	.	16r	.	.
.	.	(16dddK 16ff#\	.	.
4B 4F# 4D\	.	8ccc# 8een\	.	.
.	.	8bbJ 8dd\	.	.
=207	=207	=207	=207	=207
4EE/	.	8aaL 8cc#\	.	.
.	.	8gg#X 8b\	.	.
4c# 4A 4E\	.	8ff# 8a\	.	.
.	.	8ee 8g#X\	.	.
4c# 4A 4E\	.	8dd 8f#\	.	.
.	.	8cc#J 8e\	.	.
*	*	*X8va	*	*
=208	=208	=208	=208	=208
!	!	!LO:TX:a:t=loco	!	!
4EE/	.	8bbL 8dd'\	.	.
.	.	8aa 8cc#'\	.	.
4c# 4A 4E\	.	8gg# 8b'\	.	.
.	.	8ff# 8a'\	.	.
4r	.	8ee 8g#'\	.	.
.	.	8dd#XJ 8f##X'\	.	.
=209	=209	=209	=209	=209
4EE/	.	8eeL 8g#'\	.	.
.	.	8ff#X 8a'\	.	.
4d 4B 4E\	.	8ff##X 8a#X'\	.	.
.	.	8gg# 8b'\	.	.
4d 4G# 4E\	.	8ccc# 8ee'\)	.	.
.	.	16r	.	.
.	.	16bbJk 16ddn\	.	.
=210	=210	=210	=210	=210
(8qc# 8qE 8qAA/	.	8qaaa 8qaa/	.	sfz
*	*	*8va	*	*
4AAA'/)	.	4aaaa\	.	.
2r	.	4r	.	.
*	*	*X8va	*	*
.	.	4r	.	.
==	==	==	==	==
*-	*-	*-	*-	*-
!!!system-decoration: [(s1,s2)]
!!!ENC: Berenika Jozajtis
!!!END: 2022-07-23
!!!ENC: Urszula Świątek
!!!END: 2022-08-17
!!!YEC: Copyright 2022 Narodowy Instytut Fryderyka Chopina (https://polishscores.org)
!!!YEM: License CC-BY-4.0 (https://creativecommons.org/licenses/by/4.0)
